img/telega.svg

<svg width="37" height="37" viewBox="0 0 37 37" fill="none" xmlns="http://www.w3.org/2000/svg">
<circle cx="18.5" cy="18.5" r="18.5" fill="white"/>
<path d="M18.4277 3.00004C14.3294 3.01917 10.4054 4.66064 7.51424 7.56538C4.62305 10.4701 2.99996 14.4017 3 18.5C3 22.6109 4.63303 26.5534 7.53984 29.4602C10.4467 32.367 14.3891 34 18.5 34C22.6109 34 26.5533 32.367 29.4602 29.4602C32.367 26.5534 34 22.6109 34 18.5C34 14.3892 32.367 10.4467 29.4602 7.53989C26.5533 4.63307 22.6109 3.00004 18.5 3.00004C18.4759 2.99999 18.4518 2.99999 18.4277 3.00004ZM24.8369 12.331C24.9661 12.3285 25.2515 12.3608 25.4375 12.5119C25.5611 12.6192 25.64 12.769 25.6584 12.9317C25.6791 13.0518 25.7049 13.3269 25.6842 13.5413C25.4517 15.9929 24.4417 21.9398 23.9276 24.6845C23.7106 25.847 23.283 26.2358 22.8684 26.2733C21.9694 26.3572 21.2861 25.6791 20.4142 25.1082C19.0502 24.2131 18.2791 23.6564 16.9552 22.7832C15.4245 21.7757 16.4165 21.2203 17.2884 20.3161C17.517 20.0785 21.4825 16.4708 21.56 16.144C21.569 16.1027 21.578 15.9503 21.4876 15.8702C21.3972 15.7901 21.2629 15.8172 21.166 15.8392C21.0291 15.8702 18.85 17.3117 14.6289 20.1598C14.0089 20.5861 13.4496 20.7927 12.9471 20.7798C12.3943 20.7695 11.33 20.4685 10.5382 20.2115C9.56683 19.895 8.79571 19.7284 8.86287 19.1924C8.89775 18.9134 9.28267 18.6279 10.0163 18.336C14.5346 16.3675 17.5468 15.0694 19.0554 14.4429C23.3592 12.6527 24.2544 12.3414 24.8369 12.331Z" fill="#252323"/>
</svg>

<svg xmlns="http://www.w3.org/2000/svg" fill="none" viewBox="0 0 37 37"><circle cx="18.5" cy="18.5" r="18.5" fill="#fff"/><path fill="#252323" d="M18.428 3a15.5 15.5 0 1 0 .144 31 15.5 15.5 0 0 0-.144-31zm6.409 9.331c.13-.002.415.03.6.18a.653.653 0 0 1 .221.42c.021.12.047.396.026.61-.232 2.452-1.242 8.399-1.756 11.143-.217 1.163-.645 1.552-1.06 1.59-.899.083-1.582-.595-2.454-1.166-1.364-.895-2.135-1.452-3.459-2.325-1.53-1.007-.538-1.563.333-2.467.229-.238 4.195-3.845 4.272-4.172.009-.041.018-.194-.072-.274-.09-.08-.225-.053-.322-.03-.137.03-2.316 1.472-6.537 4.32-.62.426-1.18.633-1.682.62-.553-.01-1.617-.312-2.409-.569-.971-.316-1.742-.483-1.675-1.019.035-.279.42-.564 1.153-.856 4.519-1.968 7.53-3.267 9.04-3.893 4.303-1.79 5.198-2.102 5.78-2.112z"/></svg>
